americans/img/twitter.svg

<svg width="21" height="21" viewBox="0 0 21 21" fill="none" xmlns="http://www.w3.org/2000/svg">
<path d="M20.6881 4.32013C19.9574 4.64388 19.1726 4.86263 18.3474 4.9615C19.1988 4.45207 19.8358 3.65028 20.1394 2.70575C19.3396 3.18087 18.4641 3.5153 17.5512 3.6945C16.9373 3.03901 16.1241 2.60454 15.238 2.45854C14.3518 2.31254 13.4423 2.46319 12.6505 2.8871C11.8588 3.311 11.2291 3.98444 10.8593 4.80287C10.4895 5.62129 10.4003 6.53891 10.6054 7.41325C8.98466 7.33187 7.39911 6.91061 5.95168 6.17679C4.50426 5.44298 3.2273 4.41302 2.20369 3.15375C1.85369 3.7575 1.65244 4.4575 1.65244 5.203C1.65205 5.87412 1.81732 6.53496 2.13358 7.12689C2.44985 7.71882 2.90733 8.22353 3.46544 8.59625C2.81818 8.57566 2.1852 8.40076 1.61919 8.08613V8.13863C1.61912 9.0799 1.94472 9.99221 2.54072 10.7207C3.13673 11.4493 3.96644 11.9492 4.88906 12.1356C4.28862 12.2981 3.65911 12.3221 3.04806 12.2056C3.30837 13.0155 3.81543 13.7238 4.49826 14.2312C5.18108 14.7386 6.00549 15.0198 6.85606 15.0354C5.41217 16.1689 3.62896 16.7837 1.79331 16.781C1.46815 16.7811 1.14325 16.7621 0.820312 16.7241C2.6836 17.9222 4.85261 18.558 7.06781 18.5555C14.5666 18.5555 18.6659 12.3448 18.6659 6.95825C18.6659 6.78325 18.6616 6.6065 18.6537 6.4315C19.4511 5.85485 20.1394 5.14078 20.6863 4.32275L20.6881 4.32013Z" fill="#FFF8DC"/>
</svg>

<svg width="21" height="21" fill="none" xmlns="http://www.w3.org/2000/svg"><path d="M20.688 4.32a8.163 8.163 0 0 1-2.34.641 4.086 4.086 0 0 0 1.791-2.255c-.8.475-1.675.81-2.588.989a4.078 4.078 0 0 0-6.946 3.718 11.575 11.575 0 0 1-8.401-4.26 4.078 4.078 0 0 0 1.262 5.442 4.066 4.066 0 0 1-1.847-.509v.053a4.077 4.077 0 0 0 3.27 3.997c-.6.162-1.23.186-1.84.07a4.078 4.078 0 0 0 3.807 2.83 8.18 8.18 0 0 1-5.063 1.745c-.325 0-.65-.019-.973-.057a11.527 11.527 0 0 0 6.248 1.831c7.499 0 11.598-6.21 11.598-11.597 0-.175-.004-.352-.012-.527a8.285 8.285 0 0 0 2.032-2.108l.002-.003Z" fill="#FFF8DC"/></svg>
